X:509
%%etbk:tnset id:212,pos:1,rep:3x,ant:
%%etbk:wsite http://thesession.org/tunes/321
%%etbk:video src:ytube,cde:CTKporjFV-w,desc:second tune
%%etbk:video src:ytube,cde:q1jZbqqPjH8,desc:third tune
%%etbk:pldat 2016-07-07T15:59,2015-03-24T16:51,2014-12-17T18:46,2014-12-13T16:27,2014-06-15T13:06,2014-05-04T10:43,2014-04-27T12:36,2014-04-08T17:17,2014-02-26T17:46,2014-02-18T18:12,2014-02-10T18:08,2014-02-09T13:45,2014-02-08T13:45,2013-11-27T18:39,2013-11-12T18:20,2013-11-10T14:51,2013-11-09T14:51,2013-11-07T15:52,2013-10-04T16:57,2013-10-01T17:59,2013-09-30T18:03,2013-09-16T15:44,2013-09-15T14:58
T: The Woman Of The House
Z: Piano Box Version by Martin Fleischmann
H: Created 2013-09-09 /  Last Modified 2013-09-10
R: reel
M: 4/4
L: 1/8
K: Gmaj
"G"!1!D!3!BBA B2BA|!1!GA!3!B!4!d !5!eBdB| "D"!2!(3ABA GB A2!3!B!4!d|"G"!5!e!3!BBB !5!eB!4!dB|
"G"DBBA B2BA|GABd eBdB|!1!GABG "D"!2!(3ABA GA |BGAG "G"EGG2:||
"D"!4!f2f!2!d !3!e!2!d!1!B!2!d|!3!e!5!gfd !3!e!2!d!1!B!2!d|!4!f2fd !3!e!2!d!1!B!2!d|"A"!3!e!5!aag !2!e!5!aa!4!g|
"D"!3!f2!4!f!2!d !3!e!2!d!1!B!2!d|"G"!5!g2g!3!e !2!d!1!c!3!B!2!A|!1!GABG "D"(3ABA GA |BGAG "G"!2!E!1!GG2:||


